<?xml version="1.0" encoding="UTF-8"?>
<map version="1.10" tiledversion="1.11.0" orientation="orthogonal" renderorder="right-down" width="64" height="64" tilewidth="32" tileheight="32" infinite="0" nextlayerid="8" nextobjectid="1">
 <tileset firstgid="1" source="tileset2.tsx"/>
 <layer id="7" name="terrain" width="64" height="64">
  <data encoding="csv">
0,0,0,0,0,0,0,0,0,0,0,0,0,0,0,0,0,0,0,0,0,0,0,0,0,0,0,0,0,0,0,0,0,0,0,0,0,0,0,0,0,0,0,0,0,0,0,0,0,0,0,0,0,0,0,0,0,0,0,0,0,0,0,0,
0,0,0,0,0,0,0,0,0,0,0,0,0,0,0,0,0,0,0,0,0,0,0,0,0,0,0,0,0,0,0,0,0,0,0,0,0,0,0,0,0,0,0,0,0,0,0,0,0,0,0,0,0,0,0,0,0,0,0,0,0,0,0,0,
0,0,81,81,81,81,81,81,81,81,81,81,81,81,81,81,81,81,81,81,81,81,81,81,81,81,81,81,81,81,81,81,81,81,81,81,81,81,81,81,81,81,81,81,81,81,81,81,81,81,81,81,81,81,81,81,81,81,81,81,81,81,0,0,
0,0,81,81,81,81,81,81,81,81,81,81,81,81,81,81,81,81,81,81,81,81,81,81,81,81,81,81,81,81,81,81,81,81,81,81,81,81,81,81,81,81,81,81,81,81,81,81,81,81,81,81,81,81,81,81,81,81,81,81,81,81,0,0,
0,0,81,81,81,81,81,81,81,81,81,81,81,81,81,81,81,81,81,81,81,81,81,81,81,81,81,81,81,81,81,81,81,81,81,81,81,81,81,81,81,81,81,81,81,81,81,81,81,81,81,81,81,81,81,81,81,81,81,81,81,81,0,0,
0,0,81,81,81,81,81,81,81,81,81,81,81,81,81,81,81,81,81,81,81,81,81,81,81,81,81,81,81,81,81,81,81,81,81,81,81,81,81,81,81,81,81,81,81,81,81,81,81,81,81,81,81,81,81,81,81,81,81,81,81,81,0,0,
0,0,81,81,81,81,81,81,81,81,81,81,81,81,81,81,81,81,81,81,81,81,81,81,81,81,81,81,81,81,81,81,81,81,81,81,81,81,81,81,81,81,81,81,81,81,81,81,81,81,81,81,81,81,81,81,81,81,81,81,81,81,0,0,
0,0,81,81,81,81,81,81,81,81,81,81,81,81,81,81,81,81,81,81,81,81,81,81,81,81,81,81,81,81,81,81,81,81,81,81,81,81,81,81,81,81,81,81,81,81,81,81,81,81,81,81,81,81,81,81,81,81,81,81,81,81,0,0,
0,0,81,81,81,81,81,81,81,81,81,81,81,81,81,81,81,81,81,81,81,81,81,81,81,81,81,81,81,81,81,81,81,81,81,81,81,81,81,81,81,81,81,81,81,81,81,81,81,81,81,81,81,81,81,81,81,81,81,81,81,81,0,0,
0,0,81,81,81,81,81,81,81,81,81,81,81,81,81,81,81,81,81,81,81,81,81,81,81,81,81,81,81,81,81,81,81,81,81,81,81,81,81,81,81,81,81,81,81,81,81,81,81,81,81,81,81,81,81,81,81,81,81,81,81,81,0,0,
0,0,81,81,81,81,81,81,81,81,81,81,81,81,81,81,81,81,81,81,81,81,81,81,81,81,81,81,81,81,81,81,81,81,81,81,81,81,81,81,81,81,81,81,81,81,81,81,81,81,81,81,81,81,81,81,81,81,81,81,81,81,0,0,
0,0,81,81,81,81,81,81,81,81,81,81,81,81,81,81,81,81,81,81,81,81,81,81,81,81,81,81,81,81,81,81,81,81,81,81,81,81,81,81,81,81,81,81,81,81,81,81,81,81,81,81,81,81,81,81,81,81,81,81,81,81,0,0,
0,0,81,81,81,81,81,81,81,81,81,81,81,81,81,81,81,81,81,81,81,81,81,81,81,81,81,81,81,81,81,81,81,81,81,81,81,81,81,81,81,81,81,81,81,81,81,81,81,81,81,81,81,81,81,81,81,81,81,81,81,81,0,0,
0,0,81,81,81,81,81,81,81,81,81,81,81,81,81,81,81,81,81,81,81,81,81,81,81,81,81,81,81,81,81,81,81,81,81,81,81,81,81,81,81,81,81,81,81,81,81,81,81,81,81,81,81,81,81,81,81,81,81,81,81,81,0,0,
0,0,81,81,81,81,81,81,81,81,81,81,81,81,81,81,81,81,81,81,81,81,81,81,81,81,81,81,81,81,81,81,81,81,81,81,81,81,81,81,81,81,81,81,81,81,81,81,81,81,81,81,81,81,81,81,81,81,81,81,81,81,0,0,
0,0,81,81,81,81,81,81,81,81,81,81,81,81,81,81,81,81,81,81,81,81,81,81,81,81,81,81,81,81,81,81,81,81,81,81,81,81,81,81,81,81,81,81,81,81,81,81,81,81,81,81,81,81,81,81,81,81,81,81,81,81,0,0,
0,0,81,81,81,81,81,81,81,81,81,81,81,81,81,81,81,81,81,81,81,81,81,81,81,81,81,81,81,81,81,81,81,81,81,81,81,81,81,81,81,81,81,81,81,81,81,81,81,81,81,81,81,81,81,81,81,81,81,81,81,81,0,0,
0,0,81,81,81,81,81,81,81,81,81,81,81,81,81,81,81,81,81,81,81,81,81,81,81,81,81,81,81,81,81,81,81,81,81,81,81,81,81,81,81,81,81,81,81,81,81,81,81,81,81,81,81,81,81,81,81,81,81,81,81,81,0,0,
0,0,81,81,81,81,81,81,81,81,81,81,81,81,81,81,81,81,81,81,81,81,81,81,81,81,81,81,81,81,81,81,81,81,81,81,81,81,81,81,81,81,81,81,81,81,81,81,81,81,81,81,81,81,81,81,81,81,81,81,81,81,0,0,
0,0,81,81,81,81,81,81,81,81,81,81,81,81,81,81,81,81,81,81,81,81,81,81,81,81,81,81,81,81,81,81,81,81,81,81,81,81,81,81,81,81,81,81,81,81,81,81,81,81,81,81,81,81,81,81,81,81,81,81,81,81,0,0,
0,0,81,81,81,81,81,81,81,81,81,81,81,81,81,81,81,81,81,81,81,81,81,81,81,81,81,81,81,81,81,81,81,81,81,81,81,81,81,81,81,81,81,81,81,81,81,81,81,81,81,81,81,81,81,81,81,81,81,81,81,81,0,0,
0,0,81,81,81,81,81,81,81,81,81,81,81,81,81,81,81,81,81,81,81,81,81,81,81,81,81,81,81,81,81,81,81,81,81,81,81,81,81,81,81,81,81,81,81,81,81,81,81,81,81,81,81,81,81,81,81,81,81,81,81,81,0,0,
0,0,81,81,81,81,81,81,81,81,81,81,81,81,81,81,81,81,81,81,81,81,81,81,81,81,81,81,81,81,81,81,81,81,81,81,81,81,81,81,81,81,81,81,81,81,81,81,81,81,81,81,81,81,81,81,81,81,81,81,81,81,0,0,
0,0,81,81,81,81,81,81,81,81,81,81,81,81,81,81,81,81,81,81,81,81,81,81,81,81,81,81,81,81,81,81,81,81,81,81,81,81,81,81,81,81,81,81,81,81,81,81,81,81,81,81,81,81,81,81,81,81,81,81,81,81,0,0,
0,0,81,81,81,81,81,81,81,81,81,81,81,81,81,81,81,81,81,81,81,81,81,81,81,81,81,81,81,81,81,81,81,81,81,81,81,81,81,81,81,81,81,81,81,81,81,81,81,81,81,81,81,81,81,81,81,81,81,81,81,81,0,0,
0,0,81,81,81,81,81,81,81,81,81,81,81,81,81,81,81,81,81,81,81,81,81,81,81,81,81,81,81,81,81,81,81,81,81,81,81,81,81,81,81,81,81,81,81,81,81,81,81,81,81,81,81,81,81,81,81,81,81,81,81,81,0,0,
0,0,81,81,81,81,81,81,81,81,81,81,81,81,81,81,81,81,81,81,81,81,81,81,81,81,81,81,81,81,81,81,81,81,81,81,81,81,81,81,81,81,81,81,81,81,81,81,81,81,81,81,81,81,81,81,81,81,81,81,81,81,0,0,
0,0,81,81,81,81,81,81,81,81,81,81,81,81,81,81,81,81,81,81,81,81,81,81,81,81,81,81,81,81,81,81,81,81,81,81,81,81,81,81,81,81,81,81,81,81,81,81,81,81,81,81,81,81,81,81,81,81,81,81,81,81,0,0,
0,0,81,81,81,81,81,81,81,81,81,81,81,81,81,81,81,81,81,81,81,81,81,81,81,81,81,81,81,81,81,81,81,81,81,81,81,81,81,81,81,81,81,81,81,81,81,81,81,81,81,81,81,81,81,81,81,81,81,81,81,81,0,0,
0,0,81,81,81,81,81,81,81,81,81,81,81,81,81,81,81,81,81,81,81,81,81,81,81,81,81,81,81,81,81,81,81,81,81,81,81,81,81,81,81,81,81,81,81,81,81,81,81,81,81,81,81,81,81,81,81,81,81,81,81,81,0,0,
0,0,81,81,81,81,81,81,81,81,81,81,81,81,81,81,81,81,81,81,81,81,81,81,81,81,81,81,81,81,81,81,81,81,81,81,81,81,81,81,81,81,81,81,81,81,81,81,81,81,81,81,81,81,81,81,81,81,81,81,81,81,0,0,
0,0,81,81,81,81,81,81,81,81,81,81,81,81,81,81,81,81,81,81,81,81,81,81,81,81,81,81,81,81,81,81,81,81,81,81,81,81,81,81,81,81,81,81,81,81,81,81,81,81,81,81,81,81,81,81,81,81,81,81,81,81,0,0,
0,0,81,81,81,81,81,81,81,81,81,81,81,81,81,81,81,81,81,81,81,81,81,81,81,81,81,81,81,81,81,81,81,81,81,81,81,81,81,81,81,81,81,81,81,81,81,81,81,81,81,81,81,81,81,81,81,81,81,81,81,81,0,0,
0,0,81,81,81,81,81,81,81,81,81,81,81,81,81,81,81,81,81,81,81,81,81,81,81,81,81,81,81,81,81,81,81,81,81,81,81,81,81,81,81,81,81,81,81,81,81,81,81,81,81,81,81,81,81,81,81,81,81,81,81,81,0,0,
0,0,81,81,81,81,81,81,81,81,81,81,81,81,81,81,81,81,81,81,81,81,81,81,81,81,81,81,81,81,81,81,81,81,81,81,81,81,81,81,81,81,81,81,81,81,81,81,81,81,81,81,81,81,81,81,81,81,81,81,81,81,0,0,
0,0,81,81,81,81,81,81,81,81,81,81,81,81,81,81,81,81,81,81,81,81,81,81,81,81,81,81,81,81,81,81,81,81,81,81,81,81,81,81,81,81,81,81,81,81,81,81,81,81,81,81,81,81,81,81,81,81,81,81,81,81,0,0,
0,0,81,81,81,81,81,81,81,81,81,81,81,81,81,81,81,81,81,81,81,81,81,81,81,81,81,81,81,81,81,81,81,81,81,81,81,81,81,81,81,81,81,81,81,81,81,81,81,81,81,81,81,81,81,81,81,81,81,81,81,81,0,0,
0,0,81,81,81,81,81,81,81,81,81,81,81,81,81,81,81,81,81,81,81,81,81,81,81,81,81,81,81,81,81,81,81,81,81,81,81,81,81,81,81,81,81,81,81,81,81,81,81,81,81,81,81,81,81,81,81,81,81,81,81,81,0,0,
0,0,81,81,81,81,81,81,81,81,81,81,81,81,81,81,81,81,81,81,81,81,81,81,81,81,81,81,81,81,81,81,81,81,81,81,81,81,81,81,81,81,81,81,81,81,81,81,81,81,81,81,81,81,81,81,81,81,81,81,81,81,0,0,
0,0,81,81,81,81,81,81,81,81,81,81,81,81,81,81,81,81,81,81,81,81,81,81,81,81,81,81,81,81,81,81,81,81,81,81,81,81,81,81,81,81,81,81,81,81,81,81,81,81,81,81,81,81,81,81,81,81,81,81,81,81,0,0,
0,0,81,81,81,81,81,81,81,81,81,81,81,81,81,81,81,81,81,81,81,81,81,81,81,81,81,81,81,81,81,81,81,81,81,81,81,81,81,81,81,81,81,81,81,81,81,81,81,81,81,81,81,81,81,81,81,81,81,81,81,81,0,0,
0,0,81,81,81,81,81,81,81,81,81,81,81,81,81,81,81,81,81,81,81,81,81,81,81,81,81,81,81,81,81,81,81,81,81,81,81,81,81,81,81,81,81,81,81,81,81,81,81,81,81,81,81,81,81,81,81,81,81,81,81,81,0,0,
0,0,81,81,81,81,81,81,81,81,81,81,81,81,81,81,81,81,81,81,81,81,81,81,81,81,81,81,81,81,81,81,81,81,81,81,81,81,81,81,81,81,81,81,81,81,81,81,81,81,81,81,81,81,81,81,81,81,81,81,81,81,0,0,
0,0,81,81,81,81,81,81,81,81,81,81,81,81,81,81,81,81,81,81,81,81,81,81,81,81,81,81,81,81,81,81,81,81,81,81,81,81,81,81,81,81,81,81,81,81,81,81,81,81,81,81,81,81,81,81,81,81,81,81,81,81,0,0,
0,0,81,81,81,81,81,81,81,81,81,81,81,81,81,81,81,81,81,81,81,81,81,81,81,81,81,81,81,81,81,81,81,81,81,81,81,81,81,81,81,81,81,81,81,81,81,81,81,81,81,81,81,81,81,81,81,81,81,81,81,81,0,0,
0,0,81,81,81,81,81,81,81,81,81,81,81,81,81,81,81,81,81,81,81,81,81,81,81,81,81,81,81,81,81,81,81,81,81,81,81,81,81,81,81,81,81,81,81,81,81,81,81,81,81,81,81,81,81,81,81,81,81,81,81,81,0,0,
0,0,81,81,81,81,81,81,81,81,81,81,81,81,81,81,81,81,81,81,81,81,81,81,81,81,81,81,81,81,81,81,81,81,81,81,81,81,81,81,81,81,81,81,81,81,81,81,81,81,81,81,81,81,81,81,81,81,81,81,81,81,0,0,
0,0,81,81,81,81,81,81,81,81,81,81,81,81,81,81,81,81,81,81,81,81,81,81,81,81,81,81,81,81,81,81,81,81,81,81,81,81,81,81,81,81,81,81,81,81,81,81,81,81,81,81,81,81,81,81,81,81,81,81,81,81,0,0,
0,0,81,81,81,81,81,81,81,81,81,81,81,81,81,81,81,81,81,81,81,81,81,81,81,81,81,81,81,81,81,81,81,81,81,81,81,81,81,81,81,81,81,81,81,81,81,81,81,81,81,81,81,81,81,81,81,81,81,81,81,81,0,0,
0,0,81,81,81,81,81,81,81,81,81,81,81,81,81,81,81,81,81,81,81,81,81,81,81,81,81,81,81,81,81,81,81,81,81,81,81,81,81,81,81,81,81,81,81,81,81,81,81,81,81,81,81,81,81,81,81,81,81,81,81,81,0,0,
0,0,81,81,81,81,81,81,81,81,81,81,81,81,81,81,81,81,81,81,81,81,81,81,81,81,81,81,81,81,81,81,81,81,81,81,81,81,81,81,81,81,81,81,81,81,81,81,81,81,81,81,81,81,81,81,81,81,81,81,81,81,0,0,
0,0,81,81,81,81,81,81,81,81,81,81,81,81,81,81,81,81,81,81,81,81,81,81,81,81,81,81,81,81,81,81,81,81,81,81,81,81,81,81,81,81,81,81,81,81,81,81,81,81,81,81,81,81,81,81,81,81,81,81,81,81,0,0,
0,0,81,81,81,81,81,81,81,81,81,81,81,81,81,81,81,81,81,81,81,81,81,81,81,81,81,81,81,81,81,81,81,81,81,81,81,81,81,81,81,81,81,81,81,81,81,81,81,81,81,81,81,81,81,81,81,81,81,81,81,81,0,0,
0,0,81,81,81,81,81,81,81,81,81,81,81,81,81,81,81,81,81,81,81,81,81,81,81,81,81,81,81,81,81,81,81,81,81,81,81,81,81,81,81,81,81,81,81,81,81,81,81,81,81,81,81,81,81,81,81,81,81,81,81,81,0,0,
0,0,81,81,81,81,81,81,81,81,81,81,81,81,81,81,81,81,81,81,81,81,81,81,81,81,81,81,81,81,81,81,81,81,81,81,81,81,81,81,81,81,81,81,81,81,81,81,81,81,81,81,81,81,81,81,81,81,81,81,81,81,0,0,
0,0,81,81,81,81,81,81,81,81,81,81,81,81,81,81,81,81,81,81,81,81,81,81,81,81,81,81,81,81,81,81,81,81,81,81,81,81,81,81,81,81,81,81,81,81,81,81,81,81,81,81,81,81,81,81,81,81,81,81,81,81,0,0,
0,0,81,81,81,81,81,81,81,81,81,81,81,81,81,81,81,81,81,81,81,81,81,81,81,81,81,81,81,81,81,81,81,81,81,81,81,81,81,81,81,81,81,81,81,81,81,81,81,81,81,81,81,81,81,81,81,81,81,81,81,81,0,0,
0,0,81,81,81,81,81,81,81,81,81,81,81,81,81,81,81,81,81,81,81,81,81,81,81,81,81,81,81,81,81,81,81,81,81,81,81,81,81,81,81,81,81,81,81,81,81,81,81,81,81,81,81,81,81,81,81,81,81,81,81,81,0,0,
0,0,81,81,81,81,81,81,81,81,81,81,81,81,81,81,81,81,81,81,81,81,81,81,81,81,81,81,81,81,81,81,81,81,81,81,81,81,81,81,81,81,81,81,81,81,81,81,81,81,81,81,81,81,81,81,81,81,81,81,81,81,0,0,
0,0,81,81,81,81,81,81,81,81,81,81,81,81,81,81,81,81,81,81,81,81,81,81,81,81,81,81,81,81,81,81,81,81,81,81,81,81,81,81,81,81,81,81,81,81,81,81,81,81,81,81,81,81,81,81,81,81,81,81,81,81,0,0,
0,0,81,81,81,81,81,81,81,81,81,81,81,81,81,81,81,81,81,81,81,81,81,81,81,81,81,81,81,81,81,81,81,81,81,81,81,81,81,81,81,81,81,81,81,81,81,81,81,81,81,81,81,81,81,81,81,81,81,81,81,81,0,0,
0,0,81,81,81,81,81,81,81,81,81,81,81,81,81,81,81,81,81,81,81,81,81,81,81,81,81,81,81,81,81,81,81,81,81,81,81,81,81,81,81,81,81,81,81,81,81,81,81,81,81,81,81,81,81,81,81,81,81,81,81,81,0,0,
0,0,0,0,0,0,0,0,0,0,0,0,0,0,0,0,0,0,0,0,0,0,0,0,0,0,0,0,0,0,0,0,0,0,0,0,0,0,0,0,0,0,0,0,0,0,0,0,0,0,0,0,0,0,0,0,0,0,0,0,0,0,0,0,
0,0,0,0,0,0,0,0,0,0,0,0,0,0,0,0,0,0,0,0,0,0,0,0,0,0,0,0,0,0,0,0,0,0,0,0,0,0,0,0,0,0,0,0,0,0,0,0,0,0,0,0,0,0,0,0,0,0,0,0,0,0,0,0
</data>
 </layer>
 <layer id="1" name="main" width="64" height="64">
  <data encoding="csv">
190,190,190,190,190,190,190,190,190,190,190,190,190,190,190,190,190,190,190,190,190,190,190,190,190,190,190,190,190,190,190,190,190,190,190,190,190,190,190,190,190,190,190,190,190,190,190,190,190,190,190,190,190,190,190,190,190,190,190,190,190,190,190,190,
190,190,190,190,190,190,190,190,190,190,190,190,190,190,190,190,190,190,190,190,190,190,190,190,190,190,190,190,190,190,190,190,190,190,190,190,190,190,190,190,190,190,190,190,190,190,190,190,190,190,190,190,190,190,190,190,190,190,190,190,190,190,190,190,
190,190,1,2,27,27,2,27,2,27,27,2,2,1,2,27,27,2,27,2,27,27,2,2,1,2,27,27,2,27,2,27,27,2,2,1,2,27,27,2,27,2,27,27,2,2,1,2,27,27,2,27,2,27,27,2,2,3,2,2,2,2,190,190,
190,190,21,181,0,0,21,22,0,186,186,0,0,21,181,0,0,21,22,22,186,186,186,202,21,181,0,0,21,22,22,186,186,186,0,21,0,0,0,0,22,22,186,186,186,0,0,0,0,0,21,22,22,186,186,186,0,23,0,0,0,23,190,190,
190,190,21,0,0,0,21,0,0,2,6,21,0,21,0,0,0,21,0,0,0,0,0,0,21,0,0,0,21,0,0,0,0,0,0,21,0,0,0,0,0,0,0,0,0,0,0,0,0,0,21,0,0,0,0,0,0,23,0,0,0,23,190,190,
66,67,27,0,0,0,6,0,0,0,0,26,0,21,0,0,0,6,0,0,0,0,0,0,21,0,0,0,6,0,0,0,0,0,0,21,0,0,0,0,0,0,0,0,0,0,0,0,0,0,6,0,0,0,0,0,0,23,0,0,0,23,190,190,
86,87,21,0,0,0,21,0,0,2,26,21,0,21,0,0,0,21,0,0,0,0,0,0,21,0,0,0,21,0,0,0,0,0,0,21,0,0,0,0,0,0,0,0,0,0,0,0,0,0,21,0,0,0,0,0,0,23,0,0,0,23,190,190,
86,126,21,0,0,0,21,0,0,186,0,0,186,21,0,0,0,21,0,0,186,186,0,186,21,0,0,0,21,0,0,186,186,0,201,21,0,0,0,0,0,0,186,186,0,186,0,0,0,0,21,0,0,186,186,0,186,23,0,0,0,23,190,190,
86,127,21,21,6,21,21,0,0,21,163,163,201,21,21,6,21,21,0,0,21,163,163,21,21,21,6,21,21,0,0,21,163,163,21,21,21,6,21,21,0,0,21,163,163,21,21,21,6,21,21,0,0,21,163,163,21,23,0,0,0,23,190,190,
86,87,27,0,0,202,21,0,0,2,2,2,2,21,0,0,0,21,0,0,2,2,2,2,21,0,0,0,21,0,0,2,2,2,2,21,0,0,0,21,0,0,2,2,2,2,21,0,0,0,21,0,0,2,2,2,2,23,0,0,0,23,190,190,
86,87,21,0,0,0,21,0,0,0,0,21,164,21,0,0,0,21,0,0,0,0,21,164,21,0,0,0,21,0,0,0,0,21,164,21,0,0,0,21,0,0,0,0,21,164,21,0,0,0,21,0,0,0,0,21,164,23,0,0,0,23,190,190,
106,107,26,0,0,0,6,0,0,0,0,6,0,21,0,0,0,6,0,0,0,0,6,0,21,0,0,0,6,0,0,0,0,6,0,21,0,0,0,6,0,0,0,0,6,0,21,0,0,0,6,0,0,0,0,6,0,23,0,0,0,23,190,190,
190,190,27,162,0,0,21,0,0,0,5,21,0,21,162,162,0,21,0,0,0,5,21,0,21,162,162,0,21,0,0,0,5,21,0,21,162,162,0,21,0,0,0,5,21,0,21,162,162,0,21,0,0,0,5,21,0,23,0,0,0,23,190,190,
190,190,21,163,163,163,21,0,0,0,0,21,161,21,163,163,203,21,0,0,0,0,21,161,21,163,163,203,21,0,0,0,0,21,161,21,163,163,163,21,0,0,0,0,21,161,21,163,163,163,21,0,0,0,0,21,161,23,0,0,0,23,190,190,
190,190,41,25,25,25,25,25,6,25,25,25,25,41,25,25,25,25,25,6,25,25,25,25,41,25,25,25,25,25,6,25,25,25,25,41,25,25,25,25,25,6,25,25,25,25,41,25,25,25,25,25,6,25,25,25,25,25,0,0,0,23,190,190,
190,190,27,0,0,0,0,0,0,0,0,0,0,0,0,0,0,0,0,0,0,0,0,0,0,0,0,0,0,0,0,0,0,0,0,0,0,0,0,0,0,0,0,0,0,0,0,0,0,0,0,0,0,0,0,0,0,9,0,0,0,21,190,190,
190,190,27,0,0,0,0,0,0,0,0,0,0,0,0,0,0,0,0,0,0,0,0,0,0,0,0,0,0,0,0,0,0,0,0,0,0,0,0,0,0,0,0,0,0,0,0,0,0,0,0,0,0,0,0,0,0,0,0,0,0,23,190,190,
190,190,27,0,0,0,0,0,0,0,0,0,0,0,0,0,0,0,0,0,0,0,0,0,0,0,0,0,0,0,0,0,0,0,0,0,0,0,0,0,0,0,0,0,0,0,0,0,0,0,0,0,0,0,0,0,0,9,0,0,0,23,190,190,
190,190,1073741865,1073741849,1073741849,1073741849,1073741849,1073741849,1073741830,1073741849,1073741849,1073741849,1073741849,1073741865,1073741849,1073741849,1073741849,1073741849,1073741849,1073741830,1073741849,1073741849,1073741849,1073741849,1073741865,1073741849,1073741849,1073741849,1073741849,1073741849,1073741830,1073741849,1073741849,1073741849,1073741849,1073741865,1073741849,1073741849,1073741849,1073741849,1073741849,1073741830,1073741849,1073741849,1073741849,1073741849,1073741865,1073741849,1073741849,1073741849,1073741849,1073741849,1073741830,1073741849,1073741849,1073741849,1073741849,1073741849,0,0,0,23,190,190,
190,190,1073741845,1073741987,1073741987,1073741987,1073741845,0,0,0,0,1073741845,1073741985,1073741845,1073741987,1073741987,1073741987,1073741845,0,0,0,0,1073741845,1073741985,1073741845,1073741987,1073741987,1073741987,1073741845,0,0,0,0,1073741845,1073741985,1073741845,1073741987,1073741987,1073741987,1073741845,0,0,0,0,1073741845,1073741985,1073741845,1073741987,1073741987,1073741987,1073741845,0,0,0,0,1073741845,1073741985,1073741847,0,0,0,23,190,190,
190,190,1073741845,1073741986,1073741986,0,1073741845,0,0,0,1073741829,1073741845,0,1073741845,1073741986,1073741986,0,1073741845,0,0,0,1073741829,1073741845,0,1073741845,1073741986,1073741986,0,1073741845,0,0,0,1073741829,1073741845,0,1073741845,1073741986,1073741986,0,1073741845,0,0,0,1073741829,1073741845,0,1073741845,1073741986,1073741986,0,1073741845,0,0,0,1073741829,1073741845,0,1073741847,0,0,0,23,190,190,
190,190,27,0,0,0,1073741830,0,0,0,0,1073741830,0,1073741845,0,0,0,1073741830,0,0,0,0,1073741830,0,1073741845,0,0,0,1073741830,0,0,0,0,1073741830,0,1073741845,0,0,0,1073741830,0,0,0,0,1073741830,0,1073741845,0,0,0,1073741830,0,0,0,0,1073741830,0,1073741847,0,0,0,23,190,190,
190,190,1073741845,0,0,0,1073741845,0,0,0,0,1073741845,1073741988,1073741845,0,0,0,1073741845,0,0,0,0,1073741845,1073741988,1073741845,0,0,0,1073741845,0,0,0,0,1073741845,1073741988,1073741845,0,0,0,1073741845,0,0,0,0,1073741845,1073741988,1073741845,0,0,0,1073741845,0,0,0,0,1073741845,1073741988,1073741847,0,0,0,23,190,190,
190,190,1073741845,0,0,0,1073741845,0,0,1073741826,1073741826,1073741826,1073741826,1073741845,0,0,0,1073741845,0,0,1073741826,1073741826,1073741826,1073741826,1073741845,0,0,0,1073741845,0,0,1073741826,1073741826,1073741826,1073741826,1073741845,0,0,0,1073741845,0,0,1073741826,1073741826,1073741826,1073741826,1073741845,0,0,0,1073741845,0,0,1073741826,1073741826,1073741826,1073741826,1073741847,0,0,0,23,190,190,
66,67,1073741845,1073741845,1073741830,1073741845,1073741845,0,0,1073741845,1073741987,1073741987,1073741845,1073741845,1073741845,1073741830,1073741845,1073741845,0,0,1073741845,1073741987,1073741987,1073741845,1073741845,1073741845,1073741830,1073741845,1073741845,0,0,1073741845,1073741987,1073741987,201,1073741845,1073741845,1073741830,1073741845,1073741845,0,0,1073741845,1073741987,1073741987,1073741845,1073741845,1073741845,1073741830,1073741845,1073741845,0,0,1073741845,1073741987,1073741987,1073741845,1073741847,0,0,0,23,190,190,
86,87,1073741845,0,0,0,1073741845,0,0,1073742010,1073742010,0,1073742010,1073741845,0,0,0,1073741845,0,0,1073742010,1073742010,0,1073742010,1073741845,0,0,0,1073741845,0,0,1073742010,1073742010,0,1073742010,1073741845,0,0,0,1073741845,0,0,1073742010,1073742010,0,1073742010,1073741845,0,0,0,1073741845,0,0,1073742010,1073742010,0,1073742010,1073741847,0,0,0,23,190,190,
86,87,27,0,0,0,1073741845,0,0,0,0,0,0,1073741845,0,0,0,1073741845,0,0,0,0,0,0,1073741845,0,0,0,1073741845,0,0,0,0,0,0,1073741845,0,0,0,1073741845,0,0,0,0,0,0,1073741845,0,0,0,1073741845,0,0,0,0,0,0,1073741847,0,0,0,23,190,190,
86,126,26,0,0,0,1073741830,0,0,0,0,0,0,1073741845,0,0,0,1073741830,0,0,0,0,0,0,1073741845,0,0,0,1073741830,0,0,0,0,0,0,1073741845,0,0,0,1073741830,0,0,0,0,0,0,1073741845,0,0,0,1073741830,0,0,0,0,0,0,1073741847,0,0,0,23,190,190,
86,127,27,0,0,0,1073741845,0,0,0,0,0,0,1073741845,0,0,0,1073741845,0,0,0,0,0,0,1073741845,0,0,0,1073741845,0,0,0,0,0,0,1073741845,0,0,0,1073741845,0,0,0,0,0,0,1073741845,0,0,0,1073741845,0,0,0,0,0,0,1073741847,0,0,0,23,190,190,
86,87,1073741845,1073742005,0,0,1073741845,1073741846,1073741846,1073742010,1073742010,1073742010,0,1073741845,1073742005,0,0,1073741845,1073741846,1073741846,1073742010,1073742010,1073742010,0,1073741845,1073742005,0,0,1073741845,1073741846,1073741846,1073742010,1073742010,1073742010,0,1073741845,1073742005,0,0,1073741845,1073741846,1073741846,1073742010,1073742010,1073742010,0,1073741845,1073742005,0,0,1073741845,1073741846,1073741846,1073742010,1073742010,1073742010,0,1073741847,0,0,0,23,190,190,
106,87,1073741825,1073741826,1073741851,1073741851,1073741826,1073741851,1073741826,1073741851,1073741851,1073741826,1073741826,1073741825,1073741826,1073741851,1073741851,1073741826,1073741851,1073741826,1073741851,1073741851,1073741826,1073741826,1073741825,1073741826,1073741851,1073741851,1073741826,1073741851,1073741826,1073741851,1073741851,1073741826,1073741826,1073741825,1073741826,1073741851,1073741851,1073741826,1073741851,1073741826,1073741851,1073741851,1073741826,1073741826,1073741825,1073741826,1073741851,1073741851,1073741826,1073741851,1073741826,1073741851,1073741851,1073741826,1073741826,1073741827,0,0,0,23,190,190,
190,190,27,0,0,0,0,0,0,0,0,0,0,0,0,0,0,0,0,0,0,0,0,0,0,0,0,0,0,0,0,0,0,0,0,0,0,0,0,0,0,0,0,0,0,0,0,0,0,0,0,0,0,0,0,0,0,0,0,0,0,21,190,190,
190,190,27,0,0,0,0,0,0,0,0,0,0,0,0,0,0,0,0,0,0,0,0,0,0,0,0,0,0,0,0,0,0,0,0,0,0,0,0,0,0,0,0,0,0,0,0,0,0,0,0,0,0,0,0,0,0,0,0,0,0,23,190,190,
190,190,1,2,27,27,2,27,2,27,27,2,2,1,2,27,27,2,27,2,27,27,2,2,1,2,27,27,2,27,2,27,27,2,2,1,2,27,27,2,27,2,27,27,2,2,1,2,27,27,2,27,2,27,27,2,2,3,0,0,0,23,190,190,
66,67,21,181,0,0,21,22,0,186,186,0,0,21,181,0,0,21,22,22,186,186,186,0,21,181,0,0,21,22,22,186,186,186,0,21,181,0,0,21,22,22,186,186,186,0,21,181,0,0,21,22,22,186,186,186,0,23,0,0,0,23,190,190,
86,87,21,0,0,0,21,0,0,0,0,0,0,21,0,0,0,21,0,0,0,0,0,0,21,0,0,0,21,0,0,0,0,0,0,21,0,0,0,21,0,0,0,0,0,0,21,0,0,0,21,0,0,0,0,0,0,23,0,0,0,23,190,190,
86,87,27,0,0,0,6,0,0,0,0,0,0,21,0,0,0,6,0,0,0,0,0,0,21,0,0,0,6,0,0,0,0,0,0,21,0,0,0,6,0,0,0,0,0,0,21,0,0,0,6,0,0,0,0,0,0,23,0,0,0,23,190,190,
86,126,21,0,0,0,21,0,0,0,0,0,0,21,0,0,0,21,0,0,0,0,0,0,21,0,0,0,21,0,0,0,0,0,0,21,0,0,0,21,0,0,0,0,0,0,21,0,0,0,21,0,0,0,0,0,0,23,0,0,0,23,190,190,
86,127,27,0,0,0,21,0,0,186,0,0,186,21,0,0,0,21,0,0,186,186,0,186,21,0,0,0,21,0,0,186,186,0,186,21,0,0,0,21,0,0,186,186,0,186,21,0,0,0,21,0,0,186,186,0,186,23,0,0,0,23,190,190,
86,87,21,21,6,21,21,0,0,21,163,163,21,21,21,6,21,21,0,0,21,163,163,0,21,21,6,21,21,0,0,21,163,163,21,21,21,6,21,21,0,0,21,163,163,21,21,21,6,21,21,0,0,21,163,163,21,23,0,0,0,23,190,190,
106,107,21,0,0,0,21,0,0,2,2,2,2,21,0,0,0,21,0,0,2,2,2,2,21,0,0,0,21,0,0,2,2,2,2,21,0,0,0,21,0,0,2,2,2,2,21,0,0,0,21,0,0,2,2,2,2,23,0,0,0,23,190,190,
190,190,21,0,0,0,21,0,0,0,0,21,164,21,0,0,0,21,0,0,0,0,21,164,21,0,0,0,21,0,0,0,0,21,164,21,0,0,0,21,0,0,0,201,21,164,21,0,0,0,21,0,0,0,0,21,164,23,0,0,0,23,190,190,
190,190,27,0,0,0,6,0,0,0,0,6,0,21,0,0,0,6,0,0,0,0,6,0,21,0,0,0,6,0,0,0,0,6,0,21,0,0,0,6,0,0,0,0,6,0,21,0,0,0,6,0,0,0,0,6,0,23,0,0,0,23,190,190,
190,190,21,162,0,0,21,0,0,0,5,21,0,21,162,162,0,21,0,0,0,5,21,0,21,162,162,0,21,0,0,0,5,21,0,21,162,162,0,21,0,0,0,5,21,0,21,162,162,0,21,0,0,0,5,21,0,23,0,0,0,23,190,190,
190,190,21,163,163,163,21,0,0,0,0,21,161,21,163,163,163,21,0,0,0,0,21,161,21,163,163,163,21,0,0,0,0,21,161,21,163,163,163,21,0,0,0,202,21,161,21,163,163,163,21,0,0,0,0,21,161,23,0,0,0,23,190,190,
190,190,41,25,25,25,25,25,6,25,25,25,25,41,25,25,25,25,25,6,25,25,25,25,41,25,25,25,25,25,6,25,25,25,25,41,25,25,25,25,25,6,25,25,25,25,41,25,25,25,25,25,6,25,25,25,25,25,0,0,0,23,190,190,
190,190,21,0,0,0,0,0,0,0,0,0,0,0,0,0,0,0,0,0,0,0,0,0,0,0,0,0,0,0,0,0,0,0,0,0,0,0,0,0,0,0,0,0,0,0,0,0,0,0,0,0,0,0,0,0,0,9,0,0,0,23,190,190,
190,190,21,0,0,0,0,0,0,0,0,0,0,0,0,0,0,0,0,0,0,0,0,0,0,0,0,0,0,0,0,0,0,0,0,0,0,0,0,0,0,0,0,0,0,0,0,0,0,0,0,0,0,0,0,0,0,0,0,0,0,21,190,190,
190,190,21,0,0,0,0,0,0,0,0,0,0,0,0,0,0,0,0,0,0,0,0,0,0,0,0,0,0,0,0,0,0,0,0,0,0,0,0,0,0,0,0,0,0,0,0,0,0,0,0,0,0,0,0,0,0,9,0,0,0,21,190,190,
190,190,1073741865,1073741849,1073741849,1073741849,1073741849,1073741849,1073741830,1073741849,1073741849,1073741849,1073741849,1073741865,1073741849,1073741849,1073741849,1073741849,1073741849,1073741830,1073741849,1073741849,1073741849,1073741849,1073741865,1073741849,1073741849,1073741849,1073741849,1073741849,1073741830,1073741849,1073741849,1073741849,1073741849,1073741865,1073741849,1073741849,1073741849,1073741849,1073741849,1073741830,1073741849,1073741849,1073741849,1073741849,1073741865,1073741849,1073741849,1073741849,1073741849,1073741849,1073741830,1073741849,1073741849,1073741849,1073741849,1073741849,0,0,0,23,190,190,
66,67,1073741845,1073741987,1073741987,1073741987,1073741845,0,0,0,0,1073741845,1073741985,1073741845,1073741987,1073741987,1073741987,1073741845,0,0,0,0,1073741845,1073741985,1073741845,1073741987,1073741987,1073741987,1073741845,0,0,0,0,1073741845,1073741985,1073741845,1073741987,1073741987,1073741987,1073741845,0,0,0,0,1073741845,1073741985,1073741845,1073741987,1073741987,1073741987,1073741845,0,0,0,0,1073741845,1073741985,1073741847,0,0,0,23,190,190,
86,87,1073741845,1073741986,1073741986,0,1073741845,0,0,0,1073741829,1073741845,0,1073741845,1073741986,1073741986,0,1073741845,0,0,0,1073741829,1073741845,0,1073741845,1073741986,1073741986,0,1073741845,0,0,0,1073741829,1073741845,0,1073741845,1073741986,1073741986,0,1073741845,0,0,0,1073741829,1073741845,0,1073741845,1073741986,1073741986,0,1073741845,0,0,0,1073741829,1073741845,0,1073741847,0,0,0,23,190,190,
86,87,27,0,0,0,1073741830,0,0,0,0,1073741830,0,1073741845,0,0,0,1073741830,0,0,0,0,1073741830,0,1073741845,0,0,0,1073741830,0,0,0,0,1073741830,0,1073741845,0,0,0,1073741830,0,0,0,0,1073741830,0,1073741845,0,0,0,1073741830,0,0,0,0,1073741830,0,1073741847,0,0,0,23,190,190,
86,126,1073741845,0,0,0,1073741845,0,0,0,0,1073741845,1073741988,1073741845,0,0,0,1073741845,0,0,0,0,1073741845,1073741988,1073741845,0,0,0,1073741845,0,0,0,0,1073741845,1073741988,1073741845,0,0,0,1073741845,0,0,0,0,1073741845,1073741988,1073741845,0,0,0,1073741845,0,0,0,0,1073741845,1073741988,1073741847,0,0,0,23,190,190,
86,127,27,0,0,0,1073741845,0,0,1073741826,1073741826,1073741826,1073741826,1073741845,0,0,0,1073741845,0,0,1073741826,1073741826,1073741826,1073741826,1073741845,0,0,0,1073741845,0,0,1073741826,1073741826,1073741826,1073741826,1073741845,0,0,0,1073741845,0,0,1073741826,1073741826,1073741826,1073741826,1073741845,0,0,0,1073741845,0,0,1073741826,1073741826,1073741826,1073741826,1073741847,0,0,0,23,190,190,
86,87,1073741845,1073741845,1073741830,1073741845,1073741845,0,0,1073741845,1073741987,1073741987,1073741845,1073741845,1073741845,1073741830,1073741845,1073741845,0,0,1073741845,1073741987,1073741987,1073741845,1073741845,1073741845,1073741830,1073741845,1073741845,0,0,1073741845,1073741987,1073741987,1073741845,1073741845,1073741845,1073741830,1073741845,1073741845,0,0,1073741845,1073741987,1073741987,1073741845,1073741845,1073741845,1073741830,1073741845,1073741845,0,0,1073741845,1073741987,1073741987,1073741845,1073741847,0,0,0,23,190,190,
106,107,1073741845,0,0,0,1073741845,0,0,1073742010,1073742010,0,1073742010,1073741845,0,0,0,1073741845,0,0,1073742010,1073742010,0,1073742010,1073741845,0,0,0,1073741845,0,0,1073742010,1073742010,0,1073742010,1073741845,0,0,0,1073741845,0,0,1073742010,1073742010,0,1073742010,1073741845,0,0,0,1073741845,0,0,1073742010,1073742010,0,1073742010,1073741847,0,0,0,23,190,190,
190,190,1073741845,0,0,0,1073741845,0,0,0,0,0,0,1073741845,0,0,0,1073741845,0,0,0,0,0,0,1073741845,0,0,0,1073741845,0,0,0,0,0,0,1073741845,0,0,0,1073741845,0,0,0,0,0,0,1073741845,0,0,0,1073741845,0,0,0,0,0,0,1073741847,0,0,0,23,190,190,
190,190,1073741845,0,0,0,1073741830,0,0,0,0,0,0,1073741845,0,0,0,1073741830,0,0,0,0,0,0,1073741845,0,0,0,1073741830,0,0,0,0,0,0,1073741845,0,0,0,1073741830,0,0,0,0,0,0,1073741845,0,0,0,1073741830,0,0,0,0,0,0,1073741847,0,0,0,23,190,190,
190,190,1073741845,0,0,0,1073741845,0,0,0,0,0,0,1073741845,0,0,0,1073741845,0,0,0,0,0,0,1073741845,0,0,0,1073741845,0,0,0,0,0,0,1073741845,0,0,0,1073741845,0,0,0,0,0,0,1073741845,0,0,0,1073741845,0,0,0,0,0,0,1073741847,0,0,0,23,190,190,
190,190,1073741845,1073742005,0,0,1073741845,1073741846,1073741846,1073742010,1073742010,1073742010,0,1073741845,1073742005,0,0,1073741845,1073741846,1073741846,1073742010,1073742010,1073742010,0,1073741845,1073742005,0,0,1073741845,1073741846,1073741846,1073742010,1073742010,1073742010,0,1073741845,1073742005,0,0,1073741845,1073741846,1073741846,1073742010,1073742010,1073742010,0,1073741845,1073742005,0,0,1073741845,1073741846,1073741846,1073742010,1073742010,1073742010,0,1073741847,0,0,0,23,190,190,
190,190,1073741825,1073741826,1073741851,1073741851,1073741826,1073741851,1073741826,1073741851,1073741851,1073741826,1073741826,1073741825,1073741826,1073741851,1073741851,1073741826,1073741851,1073741826,1073741851,1073741851,1073741826,1073741826,1073741825,1073741826,1073741851,1073741851,1073741826,1073741851,1073741826,1073741851,1073741851,1073741826,1073741826,1073741825,1073741826,1073741851,1073741851,1073741826,1073741851,1073741826,1073741851,1073741851,1073741826,1073741826,1073741825,1073741826,1073741851,1073741851,1073741826,1073741851,1073741826,1073741851,1073741851,1073741826,1073741826,44,42,42,42,43,190,190,
190,190,190,190,190,190,190,190,190,190,190,190,190,190,190,190,190,190,190,190,190,190,190,190,190,190,190,190,190,190,190,190,190,190,190,190,190,190,190,190,190,190,190,190,190,190,190,190,190,190,190,190,190,190,190,190,190,190,190,190,190,190,190,190,
190,190,190,190,190,190,190,190,190,190,190,190,190,190,190,190,190,190,190,190,190,190,190,190,190,190,190,190,190,190,190,190,190,190,190,190,190,190,190,190,190,190,190,190,190,190,190,190,190,190,190,190,190,190,190,190,190,190,190,190,190,190,190,190
</data>
 </layer>
 <layer id="5" name="animated" width="64" height="64">
  <data encoding="csv">
0,0,0,0,0,0,0,0,0,0,0,0,0,0,0,0,0,0,0,0,0,0,0,0,0,0,0,0,0,0,0,0,0,0,0,0,0,0,0,0,0,0,0,0,0,0,0,0,0,0,0,0,0,0,0,0,0,0,0,0,0,0,0,0,
0,0,0,0,0,0,0,0,0,0,0,0,0,0,0,0,0,0,0,0,0,0,0,0,0,0,0,0,0,0,0,0,0,0,0,0,0,0,0,0,0,0,0,0,0,0,0,0,0,0,0,0,0,0,0,0,0,0,0,0,0,0,0,0,
0,0,0,0,0,0,0,0,0,0,0,0,0,0,0,0,0,0,0,0,0,0,0,0,0,0,0,0,0,0,0,0,0,0,0,0,0,0,0,0,0,0,0,0,0,0,0,0,0,0,0,0,0,0,0,0,0,0,0,0,0,0,0,0,
0,0,0,0,0,0,0,0,0,0,0,0,0,0,0,0,0,0,0,0,0,0,0,0,0,0,0,0,0,0,0,0,0,0,0,0,0,0,0,0,0,0,0,0,0,0,0,0,0,0,0,0,0,0,0,0,0,0,0,0,0,0,0,0,
0,0,0,0,0,0,0,0,0,0,0,0,0,0,0,0,0,0,0,0,0,0,0,0,0,0,0,0,0,0,0,0,0,0,0,0,0,0,0,0,0,0,0,0,0,0,0,0,0,0,0,0,0,0,0,0,0,0,0,0,0,0,0,0,
0,0,0,0,0,0,0,0,0,0,0,0,0,0,0,0,0,0,0,0,0,0,0,0,0,0,0,0,0,0,0,0,0,0,0,0,0,0,0,0,0,0,0,0,0,0,0,0,0,0,0,0,0,0,0,0,0,0,0,0,0,0,0,0,
0,0,0,0,0,0,0,0,0,0,0,0,0,0,0,0,0,0,0,0,0,0,0,0,0,0,0,0,0,0,0,0,0,0,0,0,0,0,0,0,0,0,0,0,0,0,0,0,0,0,0,0,0,0,0,0,0,0,0,0,0,0,0,0,
0,0,0,0,0,0,0,0,0,0,0,0,0,0,0,0,0,0,0,0,0,0,0,0,0,0,0,0,0,0,0,0,0,0,0,0,0,0,0,0,0,0,0,0,0,0,0,0,0,0,0,0,0,0,0,0,0,0,0,0,0,0,0,0,
0,0,0,0,0,0,0,0,0,0,0,0,201,0,0,0,0,0,0,0,0,203,203,0,0,0,0,0,0,0,0,0,203,203,0,0,0,0,0,0,0,0,0,203,203,0,0,0,0,0,0,0,0,0,203,203,0,0,0,0,0,0,0,0,
0,0,0,0,0,0,0,0,0,0,0,0,0,0,0,0,0,0,0,0,0,0,0,0,0,0,0,0,0,0,0,0,0,0,0,0,0,0,0,0,0,0,0,0,0,0,0,0,0,0,0,0,0,0,0,0,0,0,0,0,0,0,0,0,
0,0,0,0,0,0,0,0,0,0,0,0,0,0,0,0,0,0,0,0,0,0,0,0,0,0,0,0,0,0,0,0,0,0,0,0,0,0,0,0,0,0,0,0,0,0,0,0,0,0,0,0,0,0,0,0,0,0,0,0,0,0,0,0,
0,0,0,0,0,0,0,0,0,0,0,0,0,0,0,0,0,0,0,0,0,0,0,0,0,0,0,0,0,0,0,0,0,0,0,0,0,0,0,0,0,0,0,0,0,0,0,0,0,0,0,0,0,0,0,0,0,0,0,0,0,0,0,0,
0,0,0,0,0,0,0,0,0,0,0,0,0,0,0,0,0,0,0,0,0,0,0,0,0,0,0,0,0,0,0,0,0,0,0,0,0,0,0,0,0,0,0,0,0,0,0,0,0,0,0,0,0,0,0,0,0,0,0,0,0,0,0,0,
0,0,0,203,203,203,0,0,0,0,0,0,0,0,203,203,0,0,0,0,0,0,0,0,0,203,203,0,0,0,0,0,0,0,0,0,203,203,0,0,0,0,0,0,0,0,0,203,203,0,0,0,0,0,0,0,0,0,0,0,0,0,0,0,
0,0,0,0,0,0,0,0,0,0,0,0,0,0,0,0,0,0,0,0,0,0,0,0,0,0,0,0,0,0,0,0,0,0,0,0,0,0,0,0,0,0,0,0,0,0,0,0,0,0,0,0,0,0,0,0,0,0,0,0,0,0,0,0,
0,0,0,0,0,0,0,0,0,0,0,0,0,0,0,0,0,0,0,0,0,0,0,0,0,0,0,0,0,0,0,0,0,0,0,0,0,0,0,0,0,0,0,0,0,0,0,0,0,0,0,0,0,0,0,0,0,0,0,0,0,0,0,0,
0,0,0,0,0,0,0,0,0,0,0,0,0,0,0,0,0,0,0,0,0,0,0,0,0,0,0,0,0,0,0,0,0,0,0,0,0,0,0,0,0,0,0,0,0,0,0,0,0,0,0,0,0,0,0,0,0,0,0,0,0,0,0,0,
0,0,0,0,0,0,0,0,0,0,0,0,0,0,0,0,0,0,0,0,0,0,0,0,0,0,0,0,0,0,0,0,0,0,0,0,0,0,0,0,0,0,0,0,0,0,0,0,0,0,0,0,0,0,0,0,0,0,0,0,0,0,0,0,
0,0,0,0,0,0,0,0,0,0,0,0,0,0,0,0,0,0,0,0,0,0,0,0,0,0,0,0,0,0,0,0,0,0,0,0,0,0,0,0,0,0,0,0,0,0,0,0,0,0,0,0,0,0,0,0,0,0,0,0,0,0,0,0,
0,0,0,0,0,0,0,0,0,0,0,0,0,0,0,0,0,0,0,0,0,0,0,0,0,0,0,0,0,0,0,0,0,0,0,0,0,0,0,0,0,0,0,0,0,0,0,203,203,203,0,0,0,0,0,0,0,0,0,0,0,0,0,0,
0,0,0,0,0,0,0,0,0,0,0,0,0,0,0,0,0,0,0,0,0,0,0,0,0,0,0,0,0,0,0,0,0,0,0,0,0,0,0,0,0,0,0,0,0,0,0,0,0,0,0,0,0,0,0,0,0,0,0,0,0,0,0,0,
0,0,0,0,0,0,0,0,0,0,0,0,0,0,0,0,0,0,0,0,0,0,0,0,0,0,0,0,0,0,0,0,0,0,0,0,0,0,0,0,0,0,0,0,0,0,0,0,0,0,0,0,0,0,0,0,0,0,0,0,0,0,0,0,
0,0,0,201,0,0,0,0,0,0,0,0,0,0,0,0,0,0,0,0,0,0,0,0,0,0,0,0,0,0,0,0,0,0,0,0,0,0,0,0,0,0,0,0,0,0,0,0,0,0,0,0,0,0,0,0,0,0,0,0,0,0,0,0,
0,0,0,201,0,0,0,0,0,0,0,0,0,0,0,0,0,0,0,0,0,0,0,0,0,0,0,0,0,0,0,0,0,0,0,0,0,0,0,0,0,0,0,0,0,0,0,0,0,0,0,0,0,0,0,0,0,0,0,0,0,0,0,0,
0,0,0,0,0,0,0,0,0,0,203,0,0,0,0,0,0,0,0,0,0,0,0,0,0,0,0,0,0,0,0,0,0,0,0,0,0,0,0,0,0,0,0,203,203,0,0,0,0,0,0,0,0,0,203,203,0,0,0,0,0,0,0,0,
0,0,0,0,0,0,0,0,0,0,0,0,0,0,0,0,0,0,0,0,0,0,0,0,0,0,0,0,0,0,0,0,0,0,0,0,0,0,0,0,0,0,0,0,0,0,0,0,0,0,0,0,0,0,0,0,0,0,0,0,0,0,0,0,
0,0,0,0,0,0,0,0,0,0,0,0,0,0,0,0,0,0,0,0,0,0,0,0,0,0,0,0,0,0,0,0,0,0,0,0,0,0,0,0,0,0,0,0,0,0,0,0,0,0,0,0,0,0,0,0,0,0,0,0,0,0,0,0,
0,0,0,0,0,0,0,0,0,0,0,0,0,0,0,0,0,0,0,0,0,0,0,0,0,0,0,0,0,0,0,0,0,0,0,0,0,0,0,0,0,0,0,0,0,0,0,0,0,0,0,0,0,0,0,0,0,0,0,0,0,0,0,0,
0,0,0,0,0,0,0,0,0,0,0,0,0,0,0,0,0,0,0,0,0,0,0,0,0,0,0,0,0,0,0,0,0,0,0,0,0,0,0,0,0,0,0,0,0,0,0,0,0,0,0,0,0,0,0,0,0,0,0,0,0,0,0,0,
0,0,0,0,0,0,0,0,0,0,0,0,0,0,0,0,0,0,203,0,0,0,0,0,0,0,0,0,0,203,0,0,0,0,0,0,0,0,0,0,203,0,0,0,0,0,0,0,0,0,0,203,0,0,0,0,0,0,0,0,0,0,0,0,
0,0,0,0,0,0,0,0,0,0,0,0,0,0,0,0,0,0,0,0,0,0,0,0,0,0,0,0,0,0,0,0,0,0,0,0,0,0,0,0,0,0,0,0,0,0,0,0,0,0,0,0,0,0,0,0,0,0,0,0,0,0,0,0,
0,0,0,0,0,0,0,0,0,0,0,0,0,0,0,0,0,0,0,0,0,0,0,0,0,0,0,0,0,0,0,0,0,0,0,0,0,0,0,0,0,0,0,0,0,0,0,0,0,0,0,0,0,0,0,0,0,0,0,0,0,0,0,0,
0,0,0,0,0,0,0,0,0,0,0,0,0,0,0,0,0,0,0,0,0,0,0,0,0,0,0,0,0,0,0,0,0,0,0,0,0,0,0,0,0,0,0,0,0,0,0,0,0,0,0,0,0,0,0,0,0,0,0,0,0,0,0,0,
0,0,0,0,0,0,0,0,0,0,0,0,0,0,0,0,0,0,0,0,0,0,0,0,0,0,0,0,0,0,0,0,0,0,0,0,0,0,0,0,0,0,0,0,0,0,0,0,0,0,0,0,0,0,0,0,0,0,0,0,0,0,0,0,
0,0,0,0,0,0,0,0,0,0,0,0,0,0,0,0,0,0,0,0,0,0,0,0,0,0,0,0,0,0,0,0,0,0,0,0,0,0,0,0,0,0,0,0,0,0,0,0,0,0,0,0,0,0,0,0,0,0,0,0,0,0,0,0,
0,0,0,0,0,0,0,0,0,0,0,0,0,0,0,0,0,0,0,0,0,0,0,0,0,0,0,0,0,0,0,0,0,0,0,0,0,0,0,0,0,0,0,0,0,0,0,0,0,0,0,0,0,0,0,0,0,0,0,0,0,0,0,0,
0,0,0,0,0,0,0,0,0,0,0,0,0,0,0,0,0,0,0,0,0,0,0,0,0,0,0,0,0,0,0,0,0,0,0,0,0,0,0,0,0,0,0,0,0,0,0,0,0,0,0,0,0,0,0,0,0,0,0,0,0,0,0,0,
0,0,0,0,0,0,0,0,0,0,0,0,0,0,0,0,0,0,0,0,0,0,0,0,0,0,0,0,0,0,0,0,0,0,0,0,0,0,0,0,0,0,0,0,0,0,0,0,0,0,0,0,0,0,0,0,0,0,0,0,0,0,0,0,
0,0,0,0,0,0,0,0,0,0,0,0,0,0,0,0,0,0,0,0,0,0,0,0,0,0,0,0,0,0,0,0,0,0,0,0,0,0,0,0,0,0,0,0,0,0,0,0,0,0,0,0,0,0,0,0,0,0,0,0,0,0,0,0,
0,0,0,0,0,0,0,0,0,0,0,0,0,0,0,0,0,0,0,0,0,0,0,201,0,0,0,0,0,0,0,0,0,0,0,0,0,0,0,0,0,0,0,203,203,0,0,0,0,0,0,0,0,0,0,0,0,0,0,0,0,0,0,0,
0,0,0,0,0,0,0,0,0,0,0,0,0,0,0,0,0,0,0,0,0,0,0,0,0,0,0,202,0,0,0,0,0,0,0,0,0,0,0,0,0,0,0,0,0,0,0,0,0,0,0,0,0,0,0,0,0,0,0,0,0,0,0,0,
0,0,0,0,0,0,0,0,0,0,0,0,0,0,0,0,0,0,0,0,0,0,0,0,0,0,0,0,0,0,0,0,0,0,0,0,0,0,0,0,0,0,0,0,0,0,0,0,0,0,0,0,0,0,0,0,0,0,0,0,0,0,0,0,
0,0,0,0,0,0,0,0,0,0,0,0,0,0,0,0,0,0,0,0,0,0,0,0,0,0,0,0,0,0,0,0,0,0,0,0,0,0,0,0,0,0,0,0,0,0,0,0,0,0,0,0,0,0,0,0,0,0,0,0,0,0,0,0,
0,0,0,0,0,0,0,0,0,0,0,0,0,0,0,0,0,0,0,0,0,0,0,0,0,0,0,0,0,0,0,0,0,0,0,0,0,0,0,0,0,0,0,0,0,0,0,0,0,0,0,0,0,0,0,0,0,0,0,0,0,0,0,0,
0,0,0,0,0,0,0,0,0,0,0,0,0,0,0,0,0,0,0,0,0,0,0,0,0,0,0,0,0,0,0,0,0,0,0,0,203,203,0,0,0,0,0,0,0,0,0,203,203,203,0,0,0,0,0,0,0,0,0,0,0,0,0,0,
0,0,0,0,0,0,0,0,0,0,0,0,0,0,0,0,0,0,0,0,0,0,0,0,0,0,0,0,0,0,0,0,0,0,0,0,0,0,0,0,0,0,0,0,0,0,0,0,0,0,0,0,0,0,0,0,0,0,0,0,0,0,0,0,
0,0,0,0,0,0,0,0,0,0,0,0,0,0,0,0,0,0,0,0,0,0,0,0,0,0,0,0,0,0,0,0,0,0,0,0,0,0,0,0,0,0,0,0,0,0,0,0,0,0,0,0,0,0,0,0,0,0,0,0,0,0,0,0,
0,0,0,0,0,0,0,0,0,0,0,0,0,0,0,0,0,0,0,0,0,0,0,0,0,0,0,0,0,0,0,0,0,0,0,0,0,0,0,0,0,0,0,0,0,0,0,0,0,0,0,0,0,0,0,0,0,0,0,0,0,0,0,0,
0,0,0,0,0,0,0,0,0,0,0,0,0,0,0,0,0,0,0,0,0,0,0,0,0,0,0,0,0,0,0,0,0,0,0,0,0,0,0,0,0,0,0,0,0,0,0,0,0,0,0,0,0,0,0,0,0,0,0,0,0,0,0,0,
0,0,0,0,0,0,0,0,0,0,0,0,0,0,0,0,0,0,0,0,0,0,0,0,0,0,0,0,0,0,0,0,0,0,0,0,0,0,0,0,0,0,0,0,0,0,0,0,0,0,0,0,0,0,0,0,0,0,0,0,0,0,0,0,
0,0,0,0,0,0,0,0,0,0,0,0,0,0,203,203,203,0,0,0,0,0,0,0,0,203,203,203,0,0,0,0,0,0,0,0,203,203,203,0,0,0,0,0,0,0,0,0,0,0,0,0,0,0,0,0,0,0,0,0,0,0,0,0,
0,0,0,0,0,0,0,0,0,0,0,0,0,0,0,0,0,0,0,0,0,0,0,0,0,0,0,0,0,0,0,0,0,0,0,0,0,0,0,0,0,0,0,0,0,0,0,0,0,0,0,0,0,0,0,0,0,0,0,0,0,0,0,0,
0,0,0,0,0,0,0,0,0,0,0,0,0,0,0,0,0,0,0,0,0,0,0,0,0,0,0,0,0,0,0,0,0,0,0,0,0,0,0,0,0,0,0,0,0,0,0,0,0,0,0,0,0,0,0,0,0,0,0,0,0,0,0,0,
0,0,0,0,0,0,0,0,0,0,0,0,0,0,0,0,0,0,0,0,0,0,0,0,0,0,0,0,0,0,0,0,0,0,0,0,0,0,0,0,0,0,0,0,0,0,0,0,0,0,0,0,0,0,0,0,0,0,0,0,0,0,0,0,
0,0,0,0,0,0,0,0,0,0,0,0,0,0,0,0,0,0,0,0,0,0,0,0,0,0,0,0,0,0,0,0,0,0,0,0,0,0,0,0,0,0,0,0,0,0,0,0,0,0,0,0,0,0,0,0,0,0,0,0,0,0,0,0,
0,0,0,0,0,0,0,0,0,0,203,203,0,0,0,0,0,0,0,0,0,203,203,0,0,0,0,0,0,0,0,0,203,203,0,0,0,0,0,0,0,0,0,203,0,0,0,0,0,0,0,0,0,0,203,203,0,0,0,0,0,0,0,0,
0,0,0,0,0,0,0,0,0,0,0,0,0,0,0,0,0,0,0,0,0,0,0,0,0,0,0,0,0,0,0,0,0,0,0,0,0,0,0,0,0,0,0,0,0,0,0,0,0,0,0,0,0,0,0,0,0,0,0,0,0,0,0,0,
0,0,0,0,0,0,0,0,0,0,0,0,0,0,0,0,0,0,0,0,0,0,0,0,0,0,0,0,0,0,0,0,0,0,0,0,0,0,0,0,0,0,0,0,0,0,0,0,0,0,0,0,0,0,0,0,0,0,0,0,0,0,0,0,
0,0,0,0,0,0,0,0,0,0,0,0,0,0,0,0,0,0,0,0,0,0,0,0,0,0,0,0,0,0,0,0,0,0,0,0,0,0,0,0,0,0,0,0,0,0,0,0,0,0,0,0,0,0,0,0,0,0,0,0,0,0,0,0,
0,0,0,0,0,0,0,0,0,0,0,0,0,0,0,0,0,0,0,0,0,0,0,0,0,0,0,0,0,0,0,0,0,0,0,0,0,0,0,0,0,0,0,0,0,0,0,0,0,0,0,0,0,0,0,0,0,0,0,0,0,0,0,0,
0,0,0,0,0,0,0,0,0,0,0,0,0,0,0,0,0,0,0,0,0,0,0,0,0,0,0,0,0,0,0,0,0,0,0,0,0,0,0,0,0,0,0,0,0,0,0,0,0,0,0,0,0,0,0,0,0,0,0,0,0,0,0,0,
0,0,0,0,0,0,0,0,0,0,0,0,0,0,0,0,0,0,0,0,0,0,0,0,0,0,0,0,0,0,0,0,0,0,0,0,0,0,0,0,0,0,0,0,0,0,0,0,0,0,0,0,0,0,0,0,0,0,0,0,0,0,0,0,
0,0,0,0,0,0,0,0,0,0,0,0,0,0,0,0,0,0,0,0,0,0,0,0,0,0,0,0,0,0,0,0,0,0,0,0,0,0,0,0,0,0,0,0,0,0,0,0,0,0,0,0,0,0,0,0,0,0,0,0,0,0,0,0,
0,0,0,0,0,0,0,0,0,0,0,0,0,0,0,0,0,0,0,0,0,0,0,0,0,0,0,0,0,0,0,0,0,0,0,0,0,0,0,0,0,0,0,0,0,0,0,0,0,0,0,0,0,0,0,0,0,0,0,0,0,0,0,0
</data>
 </layer>
</map>
