<?xml version="1.0" encoding="UTF-8"?>
<map version="1.10" tiledversion="1.11.0" orientation="orthogonal" renderorder="right-down" width="16" height="16" tilewidth="32" tileheight="32" infinite="0" nextlayerid="8" nextobjectid="5">
 <tileset firstgid="1" source="tileset2.tsx"/>
 <layer id="6" name="terrain" width="16" height="16">
  <data encoding="csv">
536870974,536870974,536870974,536870974,536870974,536870974,536870974,536870974,536870974,536870974,536870974,536870974,536870974,536870974,536870974,536870974,
536870974,536870974,536870974,536870974,536870974,536870974,536870974,536870975,536870975,536870974,536870974,536870974,536870974,536870974,536870974,536870974,
536870974,536870974,536870974,536870974,536870974,536870974,536870974,536870975,536870975,536870974,536870974,536870974,536870974,536870974,536870974,536870974,
536870974,536870974,536870974,536870974,536870974,536870974,536870974,536870975,536870975,536870974,536870974,536870974,536870974,536870974,536870974,536870974,
536870974,536870974,536870974,536870974,536870974,536870974,536870974,536870974,536870974,536870974,536870974,536870974,536870974,536870974,536870974,536870974,
536870974,536870974,536870974,536870974,536870974,536870974,536870974,536870975,536870975,536870974,536870974,536870974,536870974,536870974,536870974,536870974,
536870974,536870974,536870974,536870974,536870974,536870974,536870974,536870975,536870975,536870974,536870974,536870974,536870974,536870974,536870974,536870974,
536870974,536870974,536870974,536870974,536870974,536870974,536870974,536870975,536870975,536870974,536870974,536870974,536870974,536870974,536870974,536870974,
536870974,536870974,536870974,536870974,536870974,536870974,536870974,536870975,536870975,536870974,536870974,536870974,536870974,536870974,536870974,536870974,
536870974,536870974,536870974,536870974,536870974,536870974,536870974,536870975,536870975,536870974,536870974,536870974,536870974,536870974,536870974,536870974,
536870974,536870974,536870974,536870974,536870974,536870974,536870974,536870975,536870975,536870974,536870974,536870974,536870974,536870974,536870974,536870974,
536870974,536870974,536870974,536870974,536870974,536870974,536870974,536870974,536870974,536870974,536870974,536870974,536870974,536870974,536870974,536870974,
536870974,536870974,536870974,536870974,536870974,536870974,536870974,536870975,536870975,536870974,536870974,536870974,536870974,536870974,536870974,536870974,
536870974,536870974,536870974,536870974,536870974,536870974,536870974,536870975,536870975,536870974,536870974,536870974,536870974,536870974,536870974,536870974,
536870974,536870974,536870974,536870974,536870974,536870974,536870974,536870975,536870975,536870974,536870974,536870974,536870974,536870974,536870974,536870974,
536870974,536870974,536870974,536870974,536870974,536870974,536870974,536870974,536870974,536870974,536870974,536870974,536870974,536870974,536870974,536870974
</data>
 </layer>
 <layer id="1" name="main" width="16" height="16" offsetx="0.3333" offsety="0.1667">
  <data encoding="csv">
0,0,0,0,0,0,0,0,0,0,0,0,0,0,0,0,
0,0,0,0,0,0,0,0,0,0,0,0,0,0,0,0,
0,0,0,0,0,0,0,0,0,0,0,0,0,0,0,0,
0,0,0,0,0,0,0,0,0,0,0,0,0,0,0,0,
2,0,0,0,0,0,0,0,0,0,0,0,0,0,0,2,
21,0,0,0,0,0,0,0,0,0,0,0,0,0,0,21,
21,0,0,0,0,0,0,0,0,0,0,0,0,0,0,21,
21,0,0,0,0,0,0,0,0,0,0,0,0,0,0,21,
21,0,0,0,0,0,0,0,0,0,0,0,0,0,0,21,
21,0,0,0,0,0,0,0,0,0,0,0,0,0,0,21,
21,0,0,0,0,0,0,0,0,0,0,0,0,0,0,21,
42,0,0,0,0,0,0,0,0,0,0,0,0,0,0,42,
0,0,0,0,0,0,0,0,0,0,0,0,0,0,0,0,
0,0,0,0,0,0,0,0,0,0,0,0,0,0,0,0,
0,0,0,0,0,0,0,0,0,0,0,0,0,0,0,0,
0,0,0,0,0,0,0,0,0,0,0,0,0,0,0,0
</data>
 </layer>
 <layer id="5" name="animated" width="16" height="16">
  <data encoding="csv">
0,0,0,0,0,0,0,0,0,0,0,0,0,0,0,0,
0,0,0,0,0,0,0,0,0,0,0,0,0,0,0,0,
0,0,0,0,0,0,0,0,0,0,0,0,0,0,0,0,
0,0,0,0,0,0,0,0,0,0,0,0,0,0,0,0,
0,0,0,0,0,0,0,0,0,0,0,0,0,0,0,0,
0,0,0,0,0,0,0,0,0,0,0,0,0,0,0,0,
0,0,0,0,0,0,0,0,0,0,0,0,0,0,0,0,
0,0,0,0,0,0,0,0,0,0,0,0,0,0,0,0,
0,0,0,0,0,0,0,0,0,0,0,0,0,0,0,0,
0,0,0,0,0,0,0,0,0,0,0,0,0,0,0,0,
0,0,0,0,0,0,0,0,0,0,0,0,0,0,0,0,
0,0,0,0,0,0,0,0,0,0,0,0,0,0,0,0,
0,0,0,0,0,0,0,0,0,0,0,0,0,0,0,0,
0,0,0,0,0,0,0,0,0,0,0,0,0,0,0,0,
0,0,0,0,0,0,0,0,0,0,0,0,0,0,0,0,
0,0,0,0,0,0,0,0,0,0,0,0,0,0,0,0
</data>
 </layer>
 <objectgroup id="7" name="objects">
  <object id="1" name="turret_npc" x="15" y="409">
   <properties>
    <property name="NPC_id" value="029b3f19-fdb0-4763-b7cb-780309fdc4d3"/>
   </properties>
   <point/>
  </object>
  <object id="2" name="turret_npc" x="499" y="407">
   <properties>
    <property name="NPC_id" value="029b3f19-fdb0-4763-b7cb-780309fdc4d3"/>
   </properties>
   <point/>
  </object>
  <object id="3" name="turret_npc" x="17" y="128">
   <properties>
    <property name="NPC_id" value="029b3f19-fdb0-4763-b7cb-780309fdc4d3"/>
   </properties>
   <point/>
  </object>
  <object id="4" name="turret_npc" x="497" y="123">
   <properties>
    <property name="NPC_id" value="029b3f19-fdb0-4763-b7cb-780309fdc4d3"/>
   </properties>
   <point/>
  </object>
 </objectgroup>
</map>
