<?xml version="1.0" encoding="UTF-8"?>
<map version="1.10" tiledversion="1.11.0" orientation="orthogonal" renderorder="right-down" width="16" height="16" tilewidth="32" tileheight="32" infinite="0" nextlayerid="8" nextobjectid="4">
 <tileset firstgid="1" source="tileset2.tsx"/>
 <layer id="6" name="terrain" width="16" height="16">
  <data encoding="csv">
536870974,536870974,536870974,536870974,536870974,536870974,536870974,536870974,536870974,536870974,64,64,64,64,64,64,
536870974,536870974,536870974,536870974,536870974,536870974,536870974,536870974,536870974,536870974,64,64,64,64,64,64,
536870974,536870974,536870974,536870974,536870974,536870974,536870974,536870974,536870974,536870974,64,64,64,64,64,64,
536870974,536870974,536870974,536870974,536870974,536870974,536870974,536870974,536870974,536870974,64,64,64,64,64,64,
536870974,536870974,536870974,536870974,536870974,536870974,536870974,536870974,536870974,536870974,64,64,64,64,64,64,
536870974,536870974,536870974,536870974,536870974,536870974,536870974,536870974,536870974,536870974,64,64,64,64,64,64,
536870974,536870974,536870974,536870974,536870974,536870974,536870974,536870974,536870974,536870974,64,64,64,64,64,64,
536870974,536870974,536870975,536870975,536870974,536870974,536870975,536870975,536870974,536870974,64,64,64,64,64,64,
536870974,536870974,536870975,536870975,536870974,536870974,536870975,536870975,536870974,536870974,64,64,64,64,64,64,
536870974,536870974,536870974,536870974,536870974,536870974,536870974,536870974,536870974,536870974,64,64,64,64,64,64,
536870974,536870974,536870974,536870974,536870974,536870974,536870974,536870974,536870974,536870974,64,64,64,64,64,64,
536870974,536870974,536870974,536870974,536870974,536870974,536870974,536870974,536870974,536870974,64,64,64,64,64,64,
536870974,536870974,536870974,536870974,536870974,536870974,536870974,536870974,536870974,536870974,64,64,64,64,64,64,
536870974,536870974,536870974,536870974,536870974,536870974,536870974,536870974,536870974,536870974,64,64,64,64,64,64,
536870974,536870974,536870974,536870974,536870974,536870974,536870974,536870974,536870974,536870974,64,64,64,64,64,64,
536870974,536870974,536870974,536870974,536870974,536870974,536870974,536870974,536870974,536870974,64,64,64,64,64,64
</data>
 </layer>
 <layer id="1" name="main" width="16" height="16">
  <data encoding="csv">
0,0,0,0,0,0,0,0,0,0,0,0,0,0,0,0,
0,0,0,0,0,0,0,0,0,0,0,0,0,0,0,0,
0,0,0,0,0,0,0,0,0,0,0,0,0,0,0,0,
0,0,0,0,0,0,0,0,0,0,0,0,0,0,0,0,
0,0,0,0,0,0,0,0,0,0,0,0,0,0,0,0,
0,0,0,0,0,0,0,0,0,0,0,0,0,0,0,0,
0,0,0,0,0,0,0,0,0,0,0,0,0,0,0,0,
0,0,0,0,0,0,0,0,0,0,0,0,0,0,0,0,
0,0,0,0,0,0,0,0,0,0,0,0,0,0,0,0,
0,0,0,0,0,0,0,0,0,0,0,0,0,0,0,0,
0,0,0,0,0,0,0,0,0,0,0,0,0,0,0,0,
0,0,0,0,0,0,0,0,0,0,0,0,0,0,0,0,
0,0,0,0,0,0,0,0,0,0,0,0,0,0,0,0,
0,0,0,0,0,0,0,0,0,0,0,0,0,0,0,0,
0,0,0,0,0,0,0,0,0,0,0,0,0,0,0,0,
0,0,0,0,0,0,0,0,0,0,0,0,0,0,0,0
</data>
 </layer>
 <layer id="5" name="animated" width="16" height="16">
  <data encoding="csv">
0,0,0,0,0,0,0,0,0,0,0,0,0,0,0,0,
0,0,0,0,0,0,0,0,0,0,0,0,0,0,0,0,
0,0,0,0,0,0,0,0,0,0,0,0,0,0,0,0,
0,0,0,0,0,0,0,0,0,0,0,0,0,0,0,0,
0,0,0,0,0,0,0,0,0,0,0,0,0,0,0,0,
0,0,0,0,0,0,0,0,0,0,0,0,0,0,0,0,
0,0,0,0,0,0,0,0,0,0,0,0,0,0,0,0,
0,0,0,0,0,0,0,0,0,0,0,0,0,0,0,0,
0,0,0,0,0,0,0,0,0,0,0,0,0,0,0,0,
0,0,0,0,0,0,0,0,0,0,0,0,0,0,0,0,
0,0,0,0,0,0,0,0,0,0,0,0,0,0,0,0,
0,0,0,0,0,0,0,0,0,0,0,0,0,0,0,0,
0,0,0,0,0,0,0,0,0,0,0,0,0,0,0,0,
0,0,0,0,0,0,0,0,0,0,0,0,0,0,0,0,
0,0,0,0,0,0,0,0,0,0,0,0,0,0,0,0,
0,0,0,0,0,0,0,0,0,0,0,0,0,0,0,0
</data>
 </layer>
 <objectgroup id="7" name="objects">
  <object id="1" name="sidewalk" type="pedestrian_crossing" x="327.561" y="11.9766" width="177.254" height="485.651">
   <properties>
    <property name="direction" value="vertical"/>
   </properties>
  </object>
 </objectgroup>
</map>
