<?xml version="1.0" encoding="UTF-8"?>
<map version="1.10" tiledversion="1.11.0" orientation="orthogonal" renderorder="right-down" width="16" height="16" tilewidth="32" tileheight="32" infinite="0" nextlayerid="9" nextobjectid="4">
 <tileset firstgid="1" source="tileset2.tsx"/>
 <layer id="7" name="terrain" width="16" height="16">
  <data encoding="csv">
536870974,536870974,536870974,536870974,536870974,536870974,536870974,536870975,536870975,536870974,536870974,536870974,536870974,536870974,536870974,536870974,
536870974,536870974,536870974,536870974,536870974,536870974,536870974,536870975,536870975,536870974,536870974,536870974,536870974,536870974,536870974,536870974,
536870974,536870974,536870974,536870974,536870974,536870974,536870974,536870974,536870974,536870974,536870974,536870974,536870974,536870974,536870974,536870974,
536870974,536870974,536870974,536870974,536870974,536870974,536870974,536870974,536870974,536870974,536870974,536870974,536870974,536870974,536870974,536870974,
536870974,536870974,536870974,536870974,536870974,536870974,536870974,536870975,536870975,536870974,536870974,536870974,536870974,536870974,536870974,536870974,
536870974,536870974,536870974,536870974,536870974,536870974,536870974,536870975,536870975,536870974,536870974,536870974,536870974,536870974,536870974,536870974,
536870974,62,62,62,62,62,536870974,536870974,536870974,536870974,62,62,62,62,62,536870974,
536870974,62,62,62,62,62,62,536870974,536870974,62,62,536870974,62,62,62,536870974,
536870974,536870974,536870974,536870974,536870974,536870974,62,536870975,536870975,62,536870974,536870974,536870974,536870974,536870974,536870974,
65,65,65,65,65,65,65,65,65,65,65,65,65,65,65,65,
65,65,65,65,65,65,65,65,65,65,65,65,65,65,65,65,
65,65,65,65,65,65,65,65,65,65,65,65,65,65,65,65,
65,65,65,65,65,65,65,65,65,65,65,65,65,65,65,65,
65,65,65,65,65,65,65,65,65,65,65,65,65,65,65,65,
65,65,65,65,65,65,65,65,65,65,65,65,65,65,65,65,
65,65,65,65,65,65,65,65,65,65,65,65,65,65,65,65
</data>
 </layer>
 <layer id="1" name="main" width="16" height="16">
  <data encoding="csv">
0,0,0,0,0,0,0,0,0,0,0,0,0,0,0,0,
0,0,0,0,0,0,0,0,0,0,0,0,0,0,0,0,
0,0,0,0,0,0,0,0,0,0,0,0,0,0,0,0,
0,0,0,0,0,0,0,0,0,0,0,0,0,0,0,0,
0,0,0,0,0,0,0,0,0,0,0,0,0,0,0,0,
0,0,0,0,0,0,0,0,0,0,0,0,0,0,0,0,
0,0,0,0,0,0,0,0,0,0,0,0,0,0,0,0,
0,0,0,0,0,0,0,0,0,0,0,0,0,0,0,0,
0,0,0,0,0,0,0,0,0,0,0,0,0,0,0,0,
0,0,0,0,0,0,0,0,0,0,0,0,0,0,0,0,
0,0,0,0,0,0,0,0,0,0,0,0,0,0,0,0,
0,0,0,0,0,0,0,0,0,0,0,0,0,0,0,0,
0,0,0,0,0,0,0,0,0,0,0,0,0,0,0,0,
0,0,0,0,0,0,0,0,0,0,0,0,0,0,0,0,
0,0,0,0,0,0,0,0,0,0,0,0,0,0,0,0,
0,0,0,0,0,0,0,0,0,0,0,0,0,0,0,0
</data>
 </layer>
 <layer id="5" name="animated" width="16" height="16" visible="0" locked="1">
  <data encoding="csv">
0,0,0,0,0,0,0,0,0,0,0,0,0,0,0,0,
0,0,0,0,0,0,0,0,0,0,0,0,0,0,0,0,
0,0,0,0,0,0,0,0,0,0,0,0,0,0,0,0,
0,0,0,0,0,0,0,0,0,0,0,0,0,0,0,0,
0,0,0,0,0,0,0,0,0,0,0,0,0,0,0,0,
0,0,0,0,0,0,0,0,0,0,0,0,0,0,0,0,
0,0,0,0,0,0,0,0,0,0,0,0,0,0,0,0,
0,0,0,0,0,0,0,0,0,0,0,0,0,0,0,0,
0,0,0,0,0,0,0,0,0,0,0,0,0,0,0,0,
0,0,0,0,0,0,0,0,0,0,0,0,0,0,0,0,
0,0,0,0,0,0,0,0,0,0,0,0,0,0,0,0,
0,0,0,0,0,0,0,0,0,0,0,0,0,0,0,0,
0,0,0,0,0,0,0,0,0,0,0,0,0,0,0,0,
0,0,0,0,0,0,0,0,0,0,0,0,0,0,0,0,
0,0,0,0,0,0,0,0,0,0,0,0,0,0,0,0,
0,0,0,0,0,0,0,0,0,0,0,0,0,0,0,0
</data>
 </layer>
 <objectgroup id="8" name="objects">
  <object id="1" name="sidewalk" type="pedestrian_crossing" x="9.74032" y="296.272" width="488.327" height="209.525">
   <properties>
    <property name="direction" value="horizontal"/>
   </properties>
  </object>
 </objectgroup>
</map>
