<?xml version="1.0" encoding="UTF-8"?>
<map version="1.10" tiledversion="1.11.0" orientation="orthogonal" renderorder="right-down" width="16" height="16" tilewidth="32" tileheight="32" infinite="0" nextlayerid="8" nextobjectid="8">
 <tileset firstgid="1" source="tileset2.tsx"/>
 <tileset firstgid="401" source="worldMapTileset.tsx"/>
 <layer id="6" name="terrain" width="16" height="16">
  <data encoding="csv">
64,64,64,64,64,64,536870974,536870974,536870974,536870974,536870974,536870974,536870974,536870974,536870974,536870974,
64,64,64,64,64,64,536870974,536870974,536870974,536870974,536870974,536870974,536870974,536870974,536870974,536870974,
64,64,64,64,64,64,536870974,536870974,536870974,536870974,536870974,536870974,536870974,536870974,536870974,536870974,
64,64,64,64,64,64,536870974,536870974,536870974,536870974,536870974,536870974,536870974,536870974,536870974,536870974,
64,64,64,64,64,64,536870974,536870974,536870974,536870974,536870974,536870974,536870974,536870974,536870974,536870974,
64,64,64,64,64,64,536870974,536870974,536870974,536870974,536870974,536870974,536870974,536870974,536870974,536870974,
64,64,64,64,64,64,536870974,536870974,536870974,536870974,536870974,536870974,536870974,536870974,536870974,536870974,
64,64,64,64,64,64,536870975,536870975,536870974,536870974,536870975,536870975,536870974,536870974,536870975,536870975,
64,64,64,64,64,64,536870975,536870975,536870974,536870974,536870975,536870975,536870974,536870974,536870975,536870975,
64,64,64,64,64,64,536870974,536870974,536870974,536870974,536870974,536870974,536870974,536870974,536870974,536870974,
64,64,64,64,64,64,536870974,536870974,536870974,536870974,536870974,536870974,536870974,536870974,536870974,536870974,
64,64,64,64,64,64,536870974,536870974,536870974,536870974,536870974,536870974,536870974,536870974,536870974,536870974,
64,64,64,64,64,64,536870974,536870974,536870974,536870974,536870974,536870974,536870974,536870974,536870974,536870974,
64,64,64,64,64,64,536870974,536870974,536870974,536870974,536870974,536870974,536870974,536870974,536870974,536870974,
64,64,64,64,64,64,536870974,536870974,536870974,536870974,536870974,536870974,536870974,536870974,536870974,536870974,
64,64,64,64,64,64,536870974,536870974,536870974,536870974,536870974,536870974,536870974,536870974,536870974,536870974
</data>
 </layer>
 <layer id="1" name="main" width="16" height="16">
  <data encoding="csv">
0,0,0,0,0,0,0,0,0,0,0,0,0,0,0,0,
0,0,0,0,0,0,0,0,0,0,0,0,0,0,0,0,
0,0,0,0,0,0,0,0,0,0,0,0,0,0,0,0,
0,0,0,0,0,0,0,0,0,0,0,0,0,0,0,0,
0,0,0,0,0,0,0,0,0,0,0,0,0,0,0,0,
0,0,0,0,0,0,0,0,0,0,0,0,0,0,0,0,
0,0,0,0,0,0,0,0,0,0,0,0,0,0,0,0,
0,0,0,0,0,0,0,0,0,0,0,0,0,0,0,0,
0,0,0,0,0,0,0,0,0,0,0,0,0,0,0,0,
0,0,0,0,0,0,0,0,0,0,0,0,0,0,0,0,
0,0,0,0,0,0,0,0,0,0,0,0,0,0,0,0,
0,0,0,0,0,0,0,0,0,0,0,0,0,0,0,0,
0,0,0,0,0,0,0,0,0,0,0,0,0,0,0,0,
0,0,0,0,0,0,0,0,0,0,0,0,0,0,0,0,
0,0,0,0,0,0,0,0,0,0,0,0,0,0,0,0,
0,0,0,0,0,0,0,0,0,0,0,0,0,0,0,0
</data>
 </layer>
 <layer id="5" name="animated" width="16" height="16">
  <data encoding="csv">
0,0,0,0,0,0,0,0,0,0,0,0,0,0,0,0,
0,0,0,0,0,0,0,0,0,0,0,0,0,0,0,0,
0,0,0,0,0,0,0,0,0,0,0,0,0,0,0,0,
0,0,0,0,0,0,0,0,0,0,0,0,0,0,0,0,
0,0,0,0,0,0,0,0,0,0,0,0,0,0,0,0,
0,0,0,0,0,0,0,0,0,0,0,0,0,0,0,0,
0,0,0,0,0,0,0,0,0,0,0,0,0,0,0,0,
0,0,0,0,0,0,0,0,0,0,0,0,0,0,0,0,
0,0,0,0,0,0,0,0,0,0,0,0,0,0,0,0,
0,0,0,0,0,0,0,0,0,0,0,0,0,0,0,0,
0,0,0,0,0,0,0,0,0,0,0,0,0,0,0,0,
0,0,0,0,0,0,0,0,0,0,0,0,0,0,0,0,
0,0,0,0,0,0,0,0,0,0,0,0,0,0,0,0,
0,0,0,0,0,0,0,0,0,0,0,0,0,0,0,0,
0,0,0,0,0,0,0,0,0,0,0,0,0,0,0,0,
0,0,0,0,0,0,0,0,0,0,0,0,0,0,0,0
</data>
 </layer>
 <objectgroup id="7" name="objects">
  <object id="1" name="sidewalk" type="pedestrian_crossing" x="8.38363" y="10.7789" width="173.661" height="488.047">
   <properties>
    <property name="direction" value="vertical"/>
   </properties>
  </object>
 </objectgroup>
</map>
