<?xml version="1.0" encoding="UTF-8"?>
<map version="1.10" tiledversion="1.11.0" orientation="orthogonal" renderorder="right-down" width="30" height="30" tilewidth="32" tileheight="32" infinite="0" nextlayerid="2" nextobjectid="1">
 <tileset firstgid="1" source="../Buildings/worldMapTileset.tsx"/>
 <layer id="1" name="main" width="30" height="30">
  <data encoding="csv">
23,23,23,23,23,23,23,23,23,24,23,23,23,23,23,23,23,23,23,23,23,23,23,24,23,23,23,23,23,23,
0,5,0,0,0,5,0,0,0,62,62,5,0,0,0,5,0,0,0,5,0,0,0,2,5,0,0,0,0,0,
0,0,0,0,0,0,0,0,0,82,82,0,0,0,0,0,0,0,0,0,0,0,0,2,0,0,0,0,0,0,
0,0,0,0,0,0,0,0,0,2,2,0,0,0,0,0,0,0,0,0,0,0,0,2,0,0,0,0,0,0,
0,0,0,0,0,0,0,0,0,42,42,0,0,0,0,0,0,0,0,0,0,0,0,42,0,0,0,0,0,0,
22,22,22,22,22,22,22,22,61,62,62,63,22,22,22,22,22,22,22,22,22,22,61,62,63,22,22,22,22,22,
0,5,0,0,0,5,0,0,0,82,82,5,0,0,0,5,0,0,0,5,0,0,0,82,5,0,0,0,0,0,
0,0,0,0,0,0,0,0,0,2,2,0,0,0,0,0,0,0,0,0,0,0,0,2,0,0,0,0,0,0,
0,0,0,0,0,0,0,0,0,2,2,0,0,0,0,0,0,0,0,0,0,0,0,2,0,0,0,0,0,0,
0,0,0,0,0,0,0,0,0,42,42,0,0,0,0,0,0,0,0,0,0,0,0,42,0,0,0,0,0,0,
22,22,22,22,22,22,22,22,61,62,62,63,22,22,22,22,22,22,22,22,22,22,61,62,63,22,22,22,22,22,
0,0,0,0,0,0,0,0,0,62,62,63,22,22,22,22,22,22,22,22,22,22,61,62,63,22,22,22,22,22,
0,0,0,0,0,0,0,0,0,82,82,5,0,0,0,5,0,0,0,5,0,0,0,82,5,0,0,0,0,0,
3,3,3,3,3,3,3,3,3,2,2,0,0,0,0,0,0,0,0,0,0,0,0,2,0,0,0,0,0,0,
3,3,3,3,3,3,3,3,3,2,2,0,0,0,0,0,0,0,0,0,0,0,0,2,0,0,0,0,0,0,
3,3,3,3,3,3,3,3,3,42,42,0,0,0,0,0,0,0,0,0,0,0,0,42,0,0,0,0,0,0,
3,3,3,3,3,3,3,3,3,62,62,63,22,22,22,22,22,22,22,22,22,22,61,62,63,22,22,22,22,22,
3,3,3,3,3,3,3,3,3,62,62,63,22,22,22,22,22,22,22,22,22,22,61,62,63,22,22,22,22,22,
3,3,3,3,3,3,3,3,3,82,82,5,0,0,0,5,0,0,0,5,0,0,0,82,5,0,0,0,0,0,
3,3,3,3,3,3,3,3,3,2,2,0,0,0,0,0,0,0,0,0,0,0,0,2,0,0,0,0,0,0,
3,3,3,3,3,3,3,3,3,2,2,0,0,0,0,0,0,0,0,0,0,0,0,2,0,0,0,0,0,0,
3,3,3,3,3,3,3,3,3,2,2,0,0,0,0,0,0,0,0,0,0,0,0,2,0,0,0,0,0,0,
3,3,3,3,3,3,3,3,3,2,2,0,0,0,0,0,0,0,0,0,0,0,0,2,0,0,0,0,0,0,
3,3,3,3,3,3,3,3,3,2,2,0,0,0,0,0,0,0,0,0,0,0,0,2,0,0,0,0,0,0,
3,3,3,3,3,3,3,3,3,2,2,0,0,0,0,0,0,0,0,0,0,0,0,2,0,0,0,0,0,0,
3,3,3,3,3,3,3,3,3,2,2,0,0,0,0,0,0,0,0,0,0,0,0,2,0,0,0,0,0,0,
3,3,3,3,3,3,3,3,3,42,42,0,0,0,0,0,0,0,0,0,0,0,0,2,0,0,0,0,0,0,
3,3,3,3,3,3,3,3,3,62,62,63,22,22,22,22,22,22,22,22,22,22,22,62,22,22,22,22,22,22,
3,3,3,3,3,3,3,3,3,2,2,3,3,3,3,3,3,3,3,3,3,3,3,3,3,3,3,3,3,3,
3,3,3,3,3,3,3,3,3,2,2,3,3,3,3,3,3,3,3,3,3,3,3,3,3,3,3,3,3,3
</data>
 </layer>
</map>
